src/lib/packages/icons/src/assets/line/dislike.svg

<svg width="24" height="24" viewBox="0 0 24 24" fill="none" xmlns="http://www.w3.org/2000/svg">
<path d="M19.5 2.25H8.09592C5.59992 2.25 4.98894 3.46303 4.53794 4.81403L2.53891 10.814C2.07091 12.218 2.17295 13.489 2.82395 14.392C3.26995 15.012 4.20092 15.75 6.09592 15.75H9.25193V18.237C9.25193 19.493 9.87599 20.6591 10.921 21.3571C11.311 21.6171 11.76 21.751 12.214 21.751C12.455 21.751 12.6969 21.713 12.9339 21.637C13.6179 21.417 14.154 20.906 14.415 20.205L16.5429 13.75H19.499C20.739 13.75 21.749 12.741 21.749 11.5V4.5C21.75 3.259 20.74 2.25 19.5 2.25ZM15.2889 12.765L13.0019 19.706C12.9109 19.947 12.7199 20.13 12.4749 20.209C12.2289 20.288 11.967 20.251 11.754 20.109C11.127 19.691 10.753 18.991 10.753 18.237V15C10.753 14.586 10.417 14.25 10.003 14.25H6.09702C5.40102 14.25 4.47899 14.123 4.04099 13.515C3.68499 13.02 3.65499 12.209 3.96299 11.288L5.96201 5.28802C6.31701 4.22102 6.53992 3.74902 8.09592 3.74902H16V12.249C15.676 12.251 15.3899 12.458 15.2889 12.765ZM20.25 11.5C20.25 11.914 19.913 12.25 19.5 12.25H17.5V3.75H19.5C19.913 3.75 20.25 4.086 20.25 4.5V11.5Z" fill="currentColor"/>
</svg>

<svg xmlns="http://www.w3.org/2000/svg" width="24" height="24" fill="none"><path fill="currentColor" d="M19.5 2.25H8.096c-2.496 0-3.107 1.213-3.558 2.564l-2 6c-.467 1.404-.365 2.675.286 3.578.446.62 1.377 1.358 3.272 1.358h3.156v2.487c0 1.256.624 2.422 1.669 3.12a2.328 2.328 0 0 0 2.013.28 2.33 2.33 0 0 0 1.481-1.432l2.128-6.455h2.956c1.24 0 2.25-1.009 2.25-2.25v-7A2.251 2.251 0 0 0 19.5 2.25Zm-4.211 10.515-2.287 6.941a.833.833 0 0 1-.527.503.832.832 0 0 1-.721-.1 2.245 2.245 0 0 1-1.001-1.872V15a.75.75 0 0 0-.75-.75H6.097c-.696 0-1.618-.127-2.056-.735-.356-.495-.386-1.306-.078-2.227l1.999-6c.355-1.067.578-1.539 2.134-1.539H16v8.5a.752.752 0 0 0-.711.516ZM20.25 11.5a.75.75 0 0 1-.75.75h-2v-8.5h2a.75.75 0 0 1 .75.75v7Z"/></svg>
